components/Common/Svg/svgs/contentfulPartner.svg

<svg width="90" height="90" viewBox="0 0 90 90" fill="none" xmlns="http://www.w3.org/2000/svg">
<circle opacity="0.7" cx="45" cy="45" r="45" fill="#FFE603"/>
<path fill-rule="evenodd" clip-rule="evenodd" d="M34.74 34.3945C33.3116 33.0411 27.6 32.6028 25.8834 32.5011C25.6467 32.4895 25.4284 32.5678 25.2617 32.7261C25.095 32.8828 25 33.1028 25 33.3328V48.3326C25 48.7926 25.3734 49.1659 25.8334 49.1659H30.8334C31.1934 49.1659 31.5134 48.9343 31.625 48.591L31.6251 48.5906C31.6422 48.5381 31.7121 48.3235 31.8209 47.9813C31.9575 48.1225 32.1044 48.2758 32.2572 48.4352L32.4382 48.6241L32.4523 48.6388C33.1913 49.4109 33.9531 50.2068 34.4666 50.6375C37.5699 53.2358 41.2999 56.0408 42.0432 56.529C42.6566 56.9324 43.9782 57.499 45.0016 57.499C45.8232 57.499 46.4549 57.3107 46.8932 56.9424C47.4799 57.1707 48.1466 57.1724 48.7882 56.9224C49.5466 56.629 50.1699 56.0374 50.5232 55.3208C51.1799 55.4608 51.9316 55.3624 52.6149 55.0191C53.2832 54.6825 53.7665 54.1675 54.0065 53.5658C54.6699 53.6008 55.3531 53.3658 55.9181 52.8808C56.6807 52.2286 57.0028 51.2874 56.822 50.3508L58.1389 49.4663C58.2319 49.7661 58.3077 50.0211 58.3628 50.221C58.4628 50.5826 58.7912 50.8326 59.1662 50.8326H64.1662C64.6262 50.8326 64.9995 50.4592 64.9995 49.9993V34.9994C64.9995 34.5378 64.6262 34.1662 64.1662 34.1662C57.6228 34.1662 53.9928 35.8412 53.8412 35.9112C53.6246 36.0128 53.4628 36.2012 53.3962 36.4295C53.3379 36.6291 53.356 36.8415 53.445 37.0275C52.1857 36.5502 50.4294 35.8564 48.6749 35.071C45.6677 33.7267 43.7286 34.1368 41.5794 35.8328H34.9114C34.9469 35.5665 34.9756 35.3119 34.9966 35.0711C35.0184 34.8177 34.925 34.5678 34.74 34.3945ZM54.4489 39.1758C53.5761 38.8632 50.7824 37.8416 47.9933 36.5943C45.0433 35.276 43.6467 35.9544 40.9383 38.6643C39.8 39.8027 38.9217 41.506 39.0967 42.2376C39.1217 42.3443 39.1683 42.456 39.4283 42.5426C40.2433 42.8159 41.4633 42.9659 42.6417 41.2043C42.78 40.9977 43.0033 40.8643 43.2517 40.8393C43.8115 40.7828 43.9525 40.7197 44.3659 40.5345L44.37 40.5327L44.407 40.5162L44.407 40.5162C44.6746 40.397 45.0151 40.2453 45.5517 40.051C45.8533 39.9427 46.1949 40.016 46.4233 40.246C47.3349 41.1577 48.7649 42.3143 50.2783 43.5376L50.2799 43.5389L50.2799 43.539C52.5732 45.3941 54.934 47.3039 56.0835 48.8388L57.6049 47.8169C56.7491 45.2506 55.4269 41.5531 54.4489 39.1758ZM33.6432 47.4708C33.1459 46.9515 32.6837 46.4719 32.3779 46.1849C33.0743 43.8868 34.0802 40.366 34.634 37.4995H39.7465C38.608 38.6446 37.075 40.9384 37.4732 42.6226C37.6449 43.3426 38.1516 43.876 38.9049 44.1243C40.7932 44.7476 42.5165 44.1509 43.7999 42.4476C44.3299 42.366 44.6182 42.246 45.0515 42.051C45.2081 41.981 45.3915 41.8994 45.6349 41.801C46.5882 42.696 47.8749 43.7376 49.2299 44.8326L49.2346 44.8364C51.6834 46.8171 54.4586 49.0617 55.0832 50.3609C55.3916 51.0025 55.0599 51.4209 54.8349 51.6125C54.5168 51.8856 54.0858 51.9791 53.8357 51.8318C53.2093 51.3278 50.5723 48.6281 48.9364 46.9227C48.618 46.5894 48.0898 46.5778 47.758 46.8977C47.4247 47.2161 47.4147 47.7444 47.733 48.0761C48.1198 48.4794 51.2375 51.7291 52.4858 52.8668C52.3889 53.2272 52.0383 53.4424 51.8682 53.5275C51.3457 53.792 50.8008 53.7526 50.583 53.5691C50.5639 53.5506 50.5438 53.5329 50.5227 53.516C49.5243 52.7176 47.0161 50.0526 46.4493 49.436C46.136 49.096 45.611 49.076 45.271 49.386C44.9326 49.6976 44.9093 50.226 45.221 50.5643L45.2389 50.5835C45.4651 50.8267 47.7561 53.2891 49.078 54.4732C48.9209 54.8684 48.5902 55.2097 48.1881 55.3658C47.9331 55.4624 47.5631 55.5208 47.2315 55.2174C47.2186 55.2058 47.2055 55.1946 47.192 55.1839C45.9993 54.1749 43.5827 51.6026 43.1093 51.096C42.7943 50.7594 42.266 50.741 41.931 51.056C41.5943 51.371 41.5776 51.8976 41.891 52.2343C42.4546 52.8378 44.1363 54.6217 45.3975 55.8099C45.2914 55.824 45.1613 55.8324 45.0015 55.8324C44.4465 55.8324 43.4481 55.4574 42.9599 55.134C42.3749 54.749 38.7065 52.0124 35.5382 49.3591C35.0932 48.9841 34.3232 48.1808 33.6432 47.4708ZM30.225 47.4993H26.6666V34.2261C29.345 34.4378 32.235 34.8977 33.285 35.4077C32.8434 39.0577 30.845 45.5426 30.225 47.4993ZM59.7895 49.166H63.3329V35.8429C59.3679 35.9362 56.6362 36.6779 55.3645 37.1095C56.6662 39.8827 58.9995 46.5927 59.7895 49.166Z" fill="#161616"/>
</svg>

<svg width="90" height="90" viewBox="0 0 90 90" fill="none" xmlns="http://www.w3.org/2000/svg"><circle opacity=".7" cx="45" cy="45" r="45" fill="#FFE603"/><path fill-rule="evenodd" clip-rule="evenodd" d="M34.74 34.395c-1.428-1.354-7.14-1.792-8.857-1.894a.833.833 0 0 0-.883.832v15c0 .46.373.833.833.833h5c.36 0 .68-.232.792-.575.017-.053.087-.267.196-.61l.436.454.181.19.014.014c.74.772 1.501 1.568 2.015 1.998 3.103 2.599 6.833 5.404 7.576 5.892.614.403 1.935.97 2.959.97.821 0 1.453-.188 1.891-.557.587.229 1.254.23 1.895-.02a3.283 3.283 0 0 0 1.735-1.601c.657.14 1.409.041 2.092-.302.668-.337 1.151-.852 1.392-1.453.663.035 1.346-.2 1.911-.685.763-.652 1.085-1.594.904-2.53l1.317-.885c.093.3.169.555.224.755.1.362.428.612.803.612h5c.46 0 .834-.374.834-.834V35a.832.832 0 0 0-.834-.833c-6.543 0-10.173 1.675-10.325 1.745a.83.83 0 0 0-.396 1.117 90.598 90.598 0 0 1-4.77-1.957c-3.007-1.344-4.946-.934-7.096.762h-6.668c.036-.267.065-.521.086-.762a.829.829 0 0 0-.257-.676Zm19.709 4.78a97.66 97.66 0 0 1-6.456-2.58c-2.95-1.319-4.346-.64-7.055 2.07-1.138 1.138-2.016 2.841-1.841 3.573.025.106.071.218.331.305.815.273 2.035.423 3.214-1.339a.833.833 0 0 1 .61-.365c.56-.056.7-.12 1.114-.304l.004-.002.037-.017c.268-.119.608-.27 1.145-.465a.833.833 0 0 1 .871.195c.912.912 2.342 2.068 3.855 3.292h.002v.001c2.293 1.855 4.654 3.765 5.803 5.3l1.522-1.022c-.856-2.566-2.178-6.264-3.156-8.641Zm-20.806 8.296c-.497-.52-.96-1-1.265-1.286.696-2.298 1.702-5.819 2.256-8.686h5.112c-1.138 1.146-2.671 3.44-2.273 5.124.172.72.679 1.253 1.432 1.501 1.888.624 3.611.027 4.895-1.676.53-.082.818-.202 1.252-.397.156-.07.34-.152.583-.25.953.895 2.24 1.937 3.595 3.032l.005.003c2.448 1.981 5.224 4.226 5.848 5.525.309.642-.023 1.06-.248 1.252-.318.273-.75.366-1 .219-.626-.504-3.263-3.204-4.899-4.91a.833.833 0 1 0-1.203 1.153c.387.404 3.504 3.654 4.753 4.792-.097.36-.448.575-.618.66-.522.265-1.067.226-1.285.042a.854.854 0 0 0-.06-.053c-.999-.798-3.507-3.463-4.074-4.08a.835.835 0 0 0-1.228 1.128l.018.02c.226.243 2.517 2.705 3.839 3.89a1.611 1.611 0 0 1-.89.892c-.255.096-.625.155-.957-.149a.832.832 0 0 0-.039-.033c-1.193-1.01-3.61-3.581-4.083-4.088a.833.833 0 1 0-1.218 1.138c.564.604 2.245 2.388 3.507 3.576a3.035 3.035 0 0 1-.397.022c-.554 0-1.553-.375-2.041-.698-.585-.385-4.254-3.122-7.422-5.775-.445-.375-1.215-1.178-1.895-1.888Zm-3.418.028h-3.558V34.226c2.678.212 5.568.672 6.618 1.182-.442 3.65-2.44 10.135-3.06 12.091Zm29.564 1.667h3.544V35.843c-3.965.093-6.697.835-7.968 1.266 1.301 2.774 3.634 9.484 4.424 12.057Z" fill="#161616"/></svg>
